!!!OTL: A Little Bit of Heaven
!!!COM: Ball, Ernest
!!!LAR: Webster, Don
!! "A Little Bit Of Heaven" by Ernest Ball, arranged by Don Webster,
!! from "Close Harmony Classics for Barbershop Quartets" B. Feldman & Co.;
!! copyright 1914 & 1952 by M Witmark & Sons; pp. 12-13;
!! In G major followed by C major.
!! NOTE: There is an irregular meter in bar 30.  6/8 meter is followed
!!       by 4/4 meter (at bar 16).
**kern	**kern	**kern	**kern
*Ivox	*Ivox	*Ivox	*Ivox
*M6/8	*M6/8	*M6/8	*M6/8
*G:	*G:	*G:	*G:
16G;	16B;	16E;	16e;
16A;	16B;	16F#	16d#;
=1	=1	=1	=1
4G	4B	4G	4e
8G	8B	8G	8e
4G	4B	4G	4e
8G	8B	8E	8g
=2	=2	=2	=2
4BB	4A	4F#	4d#
8BB	8A	8F#	8d#
4BB	4A	4F#	4d#
8F#	8A	8D#	8B
=3	=3	=3	=3
4E	4G	4E	4B
8G	8B	8BB	8e
4F#	4A	4BB	4d#
8F#	8A	8BB	8d#
=4	=4	=4	=4
[4.G	[4.B	[4.BB	[4.e
8G]	8B]	8BB]	8e]
8r	8r	8r	8r
16G	8B	16E	16e
16A	.	16F#	16d#
=5	=5	=5	=5
4E	4B	4G	4e
8E	8B	8G	8e
4E	4B	4G	4e
8F#	8B	8A	8d#
=6	=6	=6	=6
4E	4G	4B	4e
8E	8G	8B	8e
4E	4G	4B	4e
8BB	8F#	8A	8d#
=7	=7	=7	=7
4E	4B	4G	4e
8G	8B	8E	8e
4G	4B	4E	4e
8F#	8B	8D	8dn
=8	=8	=8	=8
[4.G	[4.B	[4.E	[4.e
8G]	8B]	8E]	8e]
8r	8r	8r	8r
8r	8r	16G	8r
.	.	16A	.
=9	=9	=9	=9
4E	4G	4B	4e
8E	8G	8B	8e
4E	4G	4B	4e
8E	8B	8G	8e
=10	=10	=10	=10
4BB	4F#	4A	4d#
8BB	8F#	8A	8d#
4BB	4F#	4A	4d#
8BB	8A	8F#	8d#
=11	=11	=11	=11
4E	4B	4G	4e
8E	8B	8G	8e
4E	4B	4G	4e
8BB	8G	8E	8B
=12	=12	=12	=12
[4.D#	[4.A	[4.F#	4.B
8D#]	8A]	8F#]	8B
8r	8r	8r	8r
16BB	16E	16G	8B
16D#	16F#	16A	.
=13	=13	=13	=13
4E	4G	4B	4e
8E	8G	8B	8e
4E	4G	4B	4e
8E	8G	8B	8e
=14	=14	=14	=14
4C#	4G	4B	4e
8C#	8G	8B	8e
4Cn	4G	4B	4e
8C	8G	8A	8e
=15	=15	=15	=15
4E	4G	4G	4B
8G	8B	8E	8e
4G	4B	4E	4e
8F#	8B	8D	8d
=16	=16	=16	=16
[4.G	[4.B	[4.E	[4.e
8G]	8B]	8E]	8e]
8r	8r	8r	8r
*M4/4	*M4/4	*M4/4	*M4/4
8.G;	8.B;	8.E;	8.e;
*C:	*C:	*C:	*C:
16G	16B	16D	16f
=17	=17	=17	=17
8G	8c	8C	8e
8G	8B	8D	8f
8G	8c	8E	8g
8D	8B	8G	8f
8G	8B-	8c	8e
8E	8G	8Bn	8e
8.BB	8.G#	8.d	8.e
16E	16G	16c	16e
=18	=18	=18	=18
8F#	8A	8c	8f
8F#	8c	8A	8f
8E	8c#	8A	8g
8E-	8c#	8A	8g
[4D	[4cn	[4A	[4f#
8D]	8c]	8A]	8f#]
8AA	8c	16D	8f#
.	.	16E	.
=19	=19	=19	=19
8GG	8B	8Fn	8d
8GG	8A#	8E	8c#
8GG	8B	8F	8d
8D	8B	8G	8f
8D	8G	8B	8f
8D	8B	8An	8f
8.D;	8.An;	8.cn;	8.f;
16D	16c	16A	16f
=20	=20	=20	=20
8E	8G	8B	8e
8D	8B	8G	8f
8.D-	8.B-	8.G	8.e
16G	16B-	16E	16d-
[4Dn	[4Bn	[4G	[4f
8D]	8B]	8G]	8f]
8BB-	8G	8E	8d-
=21	=21	=21	=21
8AA	8E	8G	8c#
8AA	8E	8G	8c#
8AA	8A	8F	8c#
8AA	8G	8E	8c#
8E	8A	8G	8c#
8E	8A	8G	8c#
8AA	8A	8F	8c#
8AA	8G	8E	8c#
=22	=22	=22	=22
8D	8F	8A	8d
8D	8F	8A	8d
8E	8A	8G	8c#
8AA	8G	8E	8c#
[4D	[4F	[4A	[4d
8D]	8F]	8A]	8d]
8D	8F	8A	8d
=23	=23	=23	=23
8F#	8A	8B	8d#
8F#	8A	8B	8d#
8F#	8B	8A	8d#
8BB	8A	8F#	8d#
8F#	8A	8B	8d#
8F#	8A	8B	8d#
8F#	8B	8A	8d#
8BB	8A	8F#	8d#
=24	=24	=24	=24
8E	8B	8G	8e
8E	8G	8E	8B
8.AA	8.F#	8.E	8.c
16AA	16F#	16D	16c
4EE	4G	4E	4B
8.GG;	8.B;	8.E;	8.g;
16GG	16B	16D	16f
=25	=25	=25	=25
8G	8c	8C	8e
8G	8B	8D	8f
8G	8c	8E	8g
8D	8B	8G	8f
8G	8B-	8c	8e
8E	8G	8Bn	8e
8.BB;	8.G#;	8.d;	8.e;
16E	16G#	16c	16e
=26	=26	=26	=26
8F	8A	8c	8f
8F	8c	8A	8f
8E	8c#	8A	8g
8E-	8c#	8A	8g
[4D	[4c	[4A	[4f#
8D]	8c]	8A]	8f#]
16AA	16c	16D	16f#
16AA	16c	16E	16f#
=27	=27	=27	=27
8GG	8B	8Fn	8d
8GG	8A#	8E	8c#
8GG	8B	8F	8d
8D	8B	8G	8fn
8D	8G	8B	8f
4D	4G	4B	4f
8GG	8B	8G	8d#
=28	=28	=28	=28
8C	8G	8A	8e
8C	8G	8E	8c
8AA	8A	8E	8c
8AA	8F#	8D	8c
[4E	[4G	[4E	[4B
8E]	8G]	8E]	8B]
8r	8r	16C	8r
.	.	16D	.
=29	=29	=29	=29
8G	8c	8E	8g
8G	8c	8E	8g
8G	8B	8D	8f
8G	8B-	8C	8e
4G	4B-	4E	4c
8G	8B-	8D	8d
8G	8B-	8C	8e
=30	=30	=30	=30
!! This bar has an unannounced irregular meter.
*M?	*M?	*M?	*M?
8D	8A	8F	8d
8AA	8G	8E	8c#
8D	8A	8F	8d
8AA	8c#	8G	8e
[4D	[4d	[4A	[4f
8D]	8d]	8A]	8f]
8.F#;	8.A;	8.B;	8.d#;
16F#	16cn	16A	16d#
=31	=31	=31	=31
*M2/2	*M2/2	*M2/2	*M2/2
8C	8c	8G	8e
8C	8c	8G	8e
8BB	8A	8F#	8d#
8C	8c	8G	8e
8G	8c	8A	8e
8E	8d	8B	8g#
8A	8e	8c	8an
8A	8c	8d#	8f#
=32	=32	=32	=32
8G	8c	8e	8gn
8G-	8e	8c	8a
16D	16A	16c	16f#
8.Gn;	8.B;	8.d;	8.fn;
[4C	[4G	[4c	[4e
8C]	8G]	8c]	8e]
8r	8r	8r	8r
==	==	==	==
*-	*-	*-	*-
